lib/brands/logos/gocd.svg

<svg xmlns="http://www.w3.org/2000/svg" fill="none" aria-hidden="true" viewBox="0 0 157 87"><g id="gocd"><path id="Vector" fill="black" d="M107.324 67.9844C106.358 70.5849 104.977 72.8172 103.182 74.6813C101.387 76.5454 99.2467 77.9953 96.7382 79.0079C94.2297 80.0204 91.4681 80.5498 88.4534 80.5498C83.7586 80.5498 79.7313 79.3761 76.3943 77.0517C73.0574 74.7274 70.8711 71.5515 69.8355 67.5011H76.6475C77.3149 68.974 78.1433 70.1707 79.1789 71.0682C80.1915 71.9657 81.2962 72.6331 82.4468 73.0934C83.5975 73.5537 84.7022 73.8528 85.7838 74.0139C86.8654 74.175 87.7399 74.2441 88.4764 74.2441C90.9848 74.2441 93.1021 73.8068 94.8741 72.9093C96.6461 72.0118 98.073 70.8611 99.1546 69.4573C100.259 68.0535 101.042 66.4655 101.525 64.6705C102.008 62.8754 102.261 61.1034 102.261 59.3084V55.166C100.835 57.0991 98.9475 58.756 96.6231 60.1138C94.2988 61.4716 91.6982 62.139 88.8446 62.139C85.9909 62.139 83.3444 61.6097 80.951 60.5281C78.5576 59.4464 76.4634 57.9736 74.7143 56.0865C72.9423 54.1994 71.5615 51.9901 70.5719 49.5046C69.5823 46.9962 69.0761 44.3266 69.0761 41.4499C69.0761 38.5733 69.5823 35.9037 70.5719 33.3722C71.5615 30.8408 72.9423 28.6545 74.7143 26.7904C76.4864 24.9263 78.5576 23.4535 80.951 22.3488C83.3444 21.2442 85.9909 20.6918 88.8446 20.6918C91.7673 20.6918 94.4138 21.4053 96.8072 22.8321C99.2006 24.2589 101.088 25.9849 102.469 27.9641V21.6814H108.751V59.3084C108.774 62.5072 108.291 65.3839 107.324 67.9844ZM101.203 35.8117C100.489 34.0166 99.5228 32.4517 98.2801 31.0939C97.0604 29.7361 95.6335 28.6775 94.0226 27.9181C92.4117 27.1586 90.6857 26.7674 88.8446 26.7674C87.0035 26.7674 85.2775 27.1586 83.6435 27.9181C82.0096 28.6775 80.6058 29.7361 79.4321 31.0939C78.2584 32.4517 77.3149 34.0166 76.6245 35.8117C75.9341 37.6067 75.5888 39.5168 75.5888 41.565C75.5888 43.5672 75.9341 45.4543 76.6245 47.2263C77.3149 49.0214 78.2354 50.5633 79.4321 51.898C80.6058 53.2328 82.0096 54.2684 83.6435 55.0509C85.2775 55.8103 87.0265 56.2015 88.8446 56.2015C90.6857 56.2015 92.4117 55.8103 94.0226 55.0509C95.6335 54.2914 97.0604 53.2328 98.2801 51.898C99.4998 50.5633 100.466 49.0214 101.203 47.2263C101.916 45.4313 102.284 43.5442 102.284 41.565C102.261 39.5168 101.916 37.5837 101.203 35.8117ZM141.085 22.3488C143.501 23.4535 145.596 24.9493 147.368 26.8364C149.14 28.7235 150.521 30.9328 151.533 33.4643C152.546 35.9958 153.075 38.6883 153.075 41.542C153.075 44.3957 152.569 47.0652 151.533 49.5507C150.521 52.0361 149.117 54.1994 147.368 56.0635C145.596 57.9276 143.501 59.4004 141.085 60.459C138.669 61.5177 136.045 62.07 133.237 62.07C130.43 62.07 127.829 61.5407 125.413 60.459C122.996 59.3774 120.925 57.9276 119.13 56.0635C117.335 54.1994 115.931 52.0361 114.919 49.5507C113.906 47.0652 113.377 44.3957 113.377 41.542C113.377 38.6883 113.883 35.9958 114.919 33.4643C115.931 30.9328 117.335 28.7235 119.13 26.8364C120.925 24.9493 123.02 23.4535 125.413 22.3488C127.806 21.2442 130.43 20.6918 133.237 20.6918C136.045 20.7149 138.646 21.2672 141.085 22.3488ZM138.392 54.9588C140.003 54.1994 141.43 53.1638 142.65 51.852C143.87 50.5403 144.836 48.9983 145.527 47.2263C146.217 45.4313 146.562 43.5442 146.562 41.565C146.562 39.5168 146.217 37.5837 145.527 35.7886C144.836 33.9706 143.87 32.4057 142.65 31.0709C141.43 29.7361 140.003 28.6775 138.392 27.895C136.782 27.1126 135.056 26.6983 133.214 26.6983C131.373 26.6983 129.647 27.0896 128.036 27.895C126.425 28.6775 125.022 29.7361 123.825 31.0709C122.628 32.4057 121.685 33.9706 120.994 35.7886C120.304 37.6067 119.959 39.5398 119.959 41.565C119.959 43.5672 120.304 45.4543 120.994 47.2263C121.685 49.0214 122.628 50.5633 123.825 51.852C125.022 53.1638 126.425 54.1994 128.036 54.9588C129.647 55.7183 131.373 56.1095 133.214 56.1095C135.079 56.1095 136.782 55.7183 138.392 54.9588ZM10.4609 71.0222C9.40224 71.0222 8.34363 70.769 7.37706 70.2397C5.25983 69.1121 3.92505 66.9028 3.92505 64.4864V38.4122C3.92505 34.7991 6.84775 31.8994 10.4378 31.8994C14.0279 31.8994 16.9506 34.8221 16.9506 38.4122V52.3123L37.8008 38.4122L6.84775 17.7461C3.85601 15.744 3.05054 11.6936 5.02969 8.70185C7.03186 5.7101 11.0822 4.90463 14.074 6.88379L53.2198 32.981C55.0379 34.2007 56.1195 36.2259 56.1195 38.4122C56.1195 40.5985 55.0379 42.6236 53.2198 43.8433L14.097 69.9406C12.9923 70.654 11.7266 71.0222 10.4609 71.0222Z"/></g></svg>

<svg xmlns="http://www.w3.org/2000/svg" fill="none" aria-hidden="true" viewBox="0 0 157 87"><path fill="#000" d="M107.324 67.984c-.966 2.6-2.347 4.833-4.142 6.697-1.795 1.864-3.935 3.314-6.444 4.327-2.508 1.012-5.27 1.542-8.285 1.542-4.694 0-8.722-1.174-12.059-3.498-3.337-2.325-5.523-5.5-6.559-9.55h6.813c.667 1.472 1.495 2.669 2.53 3.566a11.167 11.167 0 0 0 3.269 2.025c1.15.46 2.255.76 3.337.92 1.081.162 1.956.231 2.692.231 2.509 0 4.626-.437 6.398-1.335 1.772-.897 3.199-2.048 4.28-3.452 1.105-1.403 1.888-2.991 2.371-4.786.483-1.796.736-3.568.736-5.363v-4.142c-1.426 1.933-3.313 3.59-5.638 4.948-2.324 1.358-4.925 2.025-7.778 2.025-2.854 0-5.5-.53-7.894-1.61-2.393-1.083-4.488-2.555-6.237-4.443-1.772-1.887-3.153-4.096-4.142-6.581-.99-2.509-1.496-5.178-1.496-8.055s.506-5.546 1.496-8.078c.99-2.531 2.37-4.718 4.142-6.582 1.772-1.864 3.844-3.337 6.237-4.441 2.393-1.105 5.04-1.657 7.894-1.657 2.922 0 5.569.713 7.962 2.14 2.394 1.427 4.281 3.153 5.662 5.132v-6.283h6.282v37.627c.023 3.2-.46 6.076-1.427 8.676Zm-6.121-32.172c-.714-1.795-1.68-3.36-2.923-4.718a13.312 13.312 0 0 0-4.257-3.176 11.999 11.999 0 0 0-5.178-1.15c-1.841 0-3.567.39-5.201 1.15a12.427 12.427 0 0 0-4.212 3.176 15.839 15.839 0 0 0-2.808 4.718c-.69 1.795-1.035 3.705-1.035 5.753 0 2.002.345 3.89 1.035 5.661.69 1.795 1.611 3.337 2.808 4.672 1.174 1.335 2.578 2.37 4.212 3.153 1.633.76 3.382 1.15 5.2 1.15a12 12 0 0 0 5.179-1.15 13.589 13.589 0 0 0 4.257-3.153c1.22-1.335 2.186-2.877 2.923-4.672a15.205 15.205 0 0 0 1.081-5.661c-.023-2.048-.368-3.981-1.081-5.753Zm39.882-13.463c2.416 1.104 4.511 2.6 6.283 4.487 1.772 1.888 3.153 4.097 4.165 6.628a21.553 21.553 0 0 1 1.542 8.078c0 2.854-.506 5.523-1.542 8.009a21.022 21.022 0 0 1-4.165 6.512 19.235 19.235 0 0 1-6.283 4.396c-2.416 1.059-5.04 1.611-7.848 1.611-2.807 0-5.408-.53-7.824-1.611-2.417-1.082-4.488-2.531-6.283-4.396-1.795-1.864-3.199-4.027-4.211-6.512-1.013-2.486-1.542-5.155-1.542-8.009s.506-5.546 1.542-8.078c1.012-2.531 2.416-4.74 4.211-6.628a20.374 20.374 0 0 1 6.283-4.487c2.393-1.105 5.017-1.657 7.824-1.657 2.808.023 5.409.575 7.848 1.657Zm-2.693 32.61a13.812 13.812 0 0 0 4.258-3.107c1.22-1.312 2.186-2.854 2.877-4.626a15.642 15.642 0 0 0 1.035-5.661c0-2.048-.345-3.981-1.035-5.776-.691-1.818-1.657-3.383-2.877-4.718a14.03 14.03 0 0 0-4.258-3.176 11.71 11.71 0 0 0-5.178-1.197c-1.841 0-3.567.392-5.178 1.197a13.564 13.564 0 0 0-4.211 3.176c-1.197 1.335-2.14 2.9-2.831 4.718-.69 1.818-1.035 3.75-1.035 5.776 0 2.002.345 3.89 1.035 5.661.691 1.795 1.634 3.337 2.831 4.626a13.353 13.353 0 0 0 4.211 3.107 12 12 0 0 0 5.178 1.15 11.92 11.92 0 0 0 5.178-1.15ZM10.461 71.022a6.399 6.399 0 0 1-3.084-.782 6.519 6.519 0 0 1-3.452-5.754V38.412a6.507 6.507 0 0 1 6.513-6.513 6.522 6.522 0 0 1 6.513 6.513v13.9l20.85-13.9L6.848 17.746A6.547 6.547 0 0 1 5.03 8.702a6.547 6.547 0 0 1 9.044-1.818L53.22 32.98a6.523 6.523 0 0 1 2.9 5.431 6.522 6.522 0 0 1-2.9 5.431L14.097 69.941a6.71 6.71 0 0 1-3.636 1.081Z"/></svg>
